X: 18
T:Miss Jane Young -- Banff
B:William Marshall's Scottish Airs, Melodies, Strathspeys, Reels &c (1822)
C:William Marshall
L:1/8
M:C
N:There is a missing quaver between the parts. It's in the original.
O:Scotland
R:Reel
Z:Clark Bernst + Richard Robinson
%%Page:18 - 2
F:http://richardrobinson.tunebook.org.uk/tune/3861
%%TBL:{"version":1,"type":"tune","id":"3861"}
K:A
%%staves {1 2}
V:1
e  | \
cA{g}af (!trill!fe)(dc) | Bcde fBbg | aAaf (!trill!fe)(dc) | Bbge a/a/a a :|
{d}cBAc dfec | dfBf dfBf | {d}c>BAc defg | {g}a>f!trill!e>c A/A/A A2 |
{d}cBAc dfec | dfBf dfBf | cefg {g}a>fec | Bbge a/a/a a2 |]
V:2 middle=d clef=bass
L:1/4
z/ | aaaa |  bbbb | aaaa | eeaa/ :| \
AAdc | BBBB | Acdd | eeAA | AAdc | BBBB | AdcA | deAA |]

